!!!COM: Beethoven
!!!OTL: 7 Variations on a Quartet by Winter
!!!Variation: Variation 1 a
**function	**harm	**kern	**kern
*	*	*clefG2	*clefG2
*	*	*k[b-]	*k[b-]
*M2/4	*M2/4	*M2/4	*M2/4
*F:	*F:	*F:	*F:
4T	4I	4r	4cc 4ccc
=50	=50	=50	=50
2T	2I	8r	(16bb-LL
.	.	.	16aa
.	.	(8cc	16gg
.	.	.	16ffJJ
.	.	8aL	16eeLL
.	.	.	16ff
.	.	8fJ)	16gg
.	.	.	16aaJJ)
=51	=51	=51	=51
4T	4V7b	8r	(8cccL
.	.	8e	16ggJk) 16bb-
.	.	.	16r
4T	4I	8r	(8bb-L
.	.	8f	16ffJk) 16aa
.	.	.	16r
=52	=52	=52	=52
2T	2V	8r	(16aaLL
.	.	.	16ee) 16gg
.	.	8c	(16gg
.	.	.	16ddJJ) 16ff
.	.	8cL	(16ffLL
.	.	.	16cc) 16ee
.	.	8cJ	(16gg
.	.	.	16ddJJ) 16ff
=53	=53	=53	=53
4T	4V	8c	(8aaL
.	.	8r	16eeJk) 16gg
.	.	.	16r
4T	4I	4r	4cc 4ccc
=54	=54	=54	=54
2T	2I	8r	(16bb-LL
.	.	.	16aa
.	.	(8cc	16gg
.	.	.	16ffJJ
.	.	8aL	16eeLL
.	.	.	16ff
.	.	8fJ)	16gg
.	.	.	16aaJJ)
=55	=55	=55	=55
4T	4V7b	8r	(8cccL
.	.	8e	16ggJk) 16bb-
.	.	.	16r
4T	4I	8r	(8bb-L
.	.	8f	16ffJk) 16aa
.	.	.	16r
=56	=56	=56	=56
4P	4iib	8r	(8aaL
.	.	8B-	16ddJk) 16gg
.	.	.	16r
4D	4V7	8r	(8ffL
.	.	8c	16b-Jk) 16ee
.	.	.	16r
*	*	*clefF4	*
=57	=57	=57	=57
4T	4I	8r	(8ggL
.	.	8F	16aJk 16ff)
.	.	.	16r
*-	*-	*-	*-
